X:1
T:Süß' Liebe liebt den Mai
T:Satz von Friedrich Silcher
T:Süß' Liebe liebt den Mai 
T:CPDL   —   Creative Commons Attribution Non Commercial 3.0
C:Friedrich Silcher
Z:CPDL   —   Creative Commons Attribution Non Commercial 3.0
%%score [ ( 1 2 ) ( 3 4 ) ]
L:1/8
Q:1/4=90
M:6/8
K:C
V:1 treble-8 nm="Tenor"
V:2 treble-8 
V:3 bass nm="Bass"
V:4 bass 
V:1
"^Munter"!mf! G | c2 c cBc | d2 e d2!f! G/B/ | ddd d2 | e/f/ | ged c2!mf! G | c2 c cBc | %7
w: 1.  Ein|Bursch und Mägd- * lein|flink und schön, 1\-3. mit *|hei- sa und ha,|und juch-|hei- sa tra- la! Die|tä- ten durch * die|
w: 2.  Sie|san- gen die- * se|Me- lo- dei * *|||* * * * Wie's|Le- ben nur _ 'ne|
w: 3.  So|nutzt die ge- * gen-|wärt'- ge Zeit * *|||* * * * Denn|Lie- be lacht * im|
 d2 e d2"^dolce" d | d>ed d2"^cresc." g | g>^fe def | g3- g2"^dolce" G | g2 =f eed | c>Ge d2 g | %13
w: Flu- ren gehn, 1\-3. zur|Mai- * en- zeit, der|won- ni- gen Blü- * te-|zeit, _ wann|Vö- gel sin- gen tir-|li- re- li- rei, wann|
w: Blu- me sei *||||||
w: Ju- gend- kleid *||||||
 g>ag ggg | g>ag g2"^dolce" f | e2 e!<(! ed!<)!e |!>(! f3- f2!>)! e | d2 d d>ed | (c2 f ecd | %19
w: Vö- * gel sin- gen tir-|li- re- li- rei: süß'|Lie- be liebt _ den|Mai, _ süß'|Lie- be liebt * den|Mai. _ _ _ _|
w: ||||||
w: ||||||
!<(! e2 f!<)! ecd |!>(! !fermata!e4)!>)! z |] %21
w: _ _ _ _ _||
w: ||
w: ||
V:2
 G | E2 E EDE | G2 c G2 G/B/ | BBB B2 | c/d/ | ecB c2 G | E2 E EDE | G2 c G2 B | c2 c B2 d | %9
 c>cc c2 c | B3- B2 G | e2 d ccG | E>Gc G2 d | e2 d ccd | e>ee d2 d | c2 c c2 c | c3- c2 c | %17
 B2 B B2 B | c6- | c6- | c4 x |] %21
V:3
 z | z6 | z3 z2!f! G, | G,G,G, G,2 | G,/F,/ | E,G,G, E,2 z | z6 | z4 z"^dolce" G, | %8
 A,2 A, G,2"^cresc." B, | A,>A,G, ^F,G,A, | G,3- G,3 | z6 | z3 z2"^dolce" G, | C2 G, E,E,G, | %14
 C>CC G,2"^dolce" G, | G,>A,_B,!<(! B,2!<)! B, |!>(! A,3- A,2!>)! G, | F,2 F, F,>G,F, | %18
 (E,2 A, G,E,F, |!<(! G,2 A,!<)! G,E,F, |!>(! !fermata!G,4)!>)! z |] %21
V:4
 x | x6 | x3 x2 G, | G,G,G, G,2 | E,/D,/ | C,E,G, C,2 x | x6 | x4 x G, | ^F,2 F, G,2 G, | %9
 D,>D,D, D,2 D, | G,,3- G,,3 | x6 | z6 | z6 | z3 z2 G, | C,2 C, C,2 C, | C,3- C,2 C, | %17
 G,,2 G,, G,,2 G,, | C,6- | C,6- | C,4 x |] %21

